src/img/svg/nbc-logo.svg

<svg width="69" height="58" viewBox="0 0 69 58" fill="none" xmlns="http://www.w3.org/2000/svg">
<path fill-rule="evenodd" clip-rule="evenodd" d="M22.9824 13.7554C21.8789 12.9882 21.3511 12.7242 20.1754 12.7242C19.1681 12.7242 18.2564 13.2039 17.5848 13.8752C16.9129 14.5466 16.5293 15.4579 16.5293 16.4891C16.5293 17.4963 16.9132 18.4076 17.5848 19.079C18.2564 19.7503 19.1681 20.2543 20.1754 20.2543H32.6504L22.9824 13.7554Z" fill="#CECECE"/>
<path fill-rule="evenodd" clip-rule="evenodd" d="M27.2047 7.85601C26.7009 6.60917 26.4129 6.08161 25.4532 5.43386C24.6138 4.85837 23.5819 4.73855 22.6466 4.93026C21.7109 5.098 20.8951 5.6499 20.3194 6.48898C19.7437 7.32807 19.5515 8.31131 19.7197 9.24662C19.9115 10.1819 20.3673 11.0689 21.2311 11.6444L32.0985 19.0547L27.2047 7.85601Z" fill="#4E5353"/>
<path fill-rule="evenodd" clip-rule="evenodd" d="M33.9454 5.09835C34.1612 3.80359 34.2095 3.20414 33.7297 2.12504C33.3217 1.18973 32.5063 0.566315 31.6182 0.230459C30.7309 -0.105398 29.7472 -0.0814341 28.7876 0.350276C27.8519 0.758023 27.1803 1.47729 26.8443 2.36431C26.5087 3.25169 26.4368 4.28286 26.8683 5.21817L32.1939 17.4484L33.9454 5.09835Z" fill="#333939"/>
<path fill-rule="evenodd" clip-rule="evenodd" d="M45.8442 13.7554C46.9477 12.9882 47.4758 12.7242 48.6505 12.7242C49.6828 12.7242 50.5702 13.2039 51.2414 13.8752C51.9134 14.5466 52.2973 15.4579 52.2973 16.4891C52.2973 17.4963 51.937 18.4076 51.2657 19.079C50.5698 19.7503 49.6824 20.2543 48.6501 20.2543H36.2002L45.8442 13.7554Z" fill="#ADACAC"/>
<path fill-rule="evenodd" clip-rule="evenodd" d="M41.6467 7.85601C42.1265 6.60917 42.4145 6.08161 43.3742 5.43386C44.2379 4.85837 45.2448 4.73855 46.1805 4.93026C47.1161 5.098 47.9559 5.6499 48.5316 6.48898C49.1073 7.32807 49.2995 8.31131 49.1074 9.24662C48.9395 10.1819 48.4597 11.0689 47.6199 11.6444L36.7529 19.0547L41.6467 7.85601Z" fill="#8E8F8F"/>
<path fill-rule="evenodd" clip-rule="evenodd" d="M41.9824 2.36431C41.6468 1.47729 40.9748 0.758023 40.0395 0.350276C39.1038 -0.0814341 38.1198 -0.105398 37.2325 0.230459C36.3451 0.566315 35.5289 1.18973 35.0974 2.12504C34.7618 2.89261 34.6895 3.41981 34.7618 4.13908V4.187L35.7687 4.21097C36.3448 4.23493 36.6324 4.37908 35.9129 4.69061C35.6492 4.88268 34.9053 5.0025 35.0738 6.32159L36.6571 17.4484L41.9824 5.21817C42.3899 4.28286 42.318 3.25206 41.9824 2.36431Z" fill="#4E5353"/>
<path fill-rule="evenodd" clip-rule="evenodd" d="M42.918 34.4749C42.918 38.2637 39.8233 38.5273 38.6715 38.5273C37.8801 38.5273 30.3711 38.6232 30.3711 38.6232V22.5802H37.6883C39.9912 22.5802 41.7662 24.4025 41.7662 26.609C41.7662 28.8155 40.6152 30.1342 39.7271 30.1342C39.7271 30.1342 42.918 30.6614 42.918 34.4749Z" fill="black"/>
<path fill-rule="evenodd" clip-rule="evenodd" d="M34.5928 25.506V28.4793H36.7282C38.2396 28.4793 38.3115 25.506 36.7282 25.506H34.5928ZM34.5928 31.8611V35.2901H37.6395C39.3906 35.2901 39.4865 31.8611 37.6395 31.8611H34.5928Z" fill="white"/>
<path fill-rule="evenodd" clip-rule="evenodd" d="M16.9846 36.7529C15.953 35.9371 14.7297 35.5057 12.5703 35.8176V38.6228H16.9367C16.673 38.4551 16.5767 38.2154 16.5288 38.0473C16.4089 37.5916 16.673 37.1839 16.8887 36.872C16.9123 36.8252 16.9367 36.7769 16.9846 36.7529ZM14.0817 32.5556C15.353 32.5556 16.3366 32.7717 17.0805 33.1072V28.7672L24.7813 38.6475L24.8052 38.6232H29.3154V22.5323H24.7813V32.4126L17.0805 22.5323H12.5703V32.6279C13.0728 32.5812 13.5771 32.5571 14.0817 32.5556ZM55.6806 38.3356V37.4722H55.6562C55.4165 37.856 55.1528 38.2873 54.8884 38.7194C55.1569 38.6008 55.4211 38.4728 55.6806 38.3356ZM50.9783 39.3185C51.1944 38.983 51.4341 38.6228 51.6502 38.2637C50.7865 38.4554 50.2587 38.5756 50.0186 38.6475C49.395 38.8392 49.011 38.5273 48.8912 38.4079C48.6031 38.1199 48.5308 37.7122 48.675 37.2801C48.8428 36.8005 49.3227 36.2489 50.1624 36.1048C51.0974 35.9614 52.1533 35.7453 53.4486 35.4338C53.5444 35.2897 53.6407 35.1459 53.7366 34.9781C53.2568 35.1702 52.7533 35.2417 52.2252 35.2417C51.6327 35.2425 51.0459 35.1264 50.4984 34.9C49.9508 34.6737 49.4534 34.3417 49.0344 33.9229C48.6154 33.5041 48.2833 33.0068 48.0569 32.4595C47.8305 31.9122 47.7143 31.3256 47.715 30.7333C47.715 28.2876 49.7298 26.2732 52.2252 26.2732C53.616 26.2732 54.8401 26.8966 55.6799 27.8798V23.3474C54.4797 22.7 53.1126 22.3402 51.6495 22.3402C46.9472 22.3402 43.1329 26.1533 43.1329 30.8288C43.1337 35.3136 46.5876 38.983 50.9783 39.3185Z" fill="black"/>
<path fill-rule="evenodd" clip-rule="evenodd" d="M68.7791 34.0189C68.5147 33.7553 68.251 33.2278 66.74 33.491C65.4687 33.707 58.871 34.9543 56.0164 35.5533C56.1606 35.2661 56.3037 35.0018 56.376 34.8101C57.0963 33.2274 56.0404 32.7717 55.225 33.9231C55.0088 34.2586 54.4807 35.0501 53.8571 36.033C52.2981 36.3932 51.2186 36.6088 50.2829 36.753C49.1319 36.9447 48.9393 38.2638 49.8271 37.9994C50.2593 37.88 51.507 37.6157 53.042 37.3045C51.6748 39.4627 50.0915 41.9807 49.5634 42.8677C48.676 44.3785 46.3731 45.8889 45.1255 46.5127C43.9017 47.1126 43.5422 46.6805 44.334 45.3621C45.1255 44.0191 45.8454 42.7 46.3731 41.9807C46.9006 41.285 46.3731 41.0214 45.845 41.1895C45.845 41.1895 46.4687 38.9834 45.1255 38.9834C43.8059 38.9834 43.2777 39.9427 42.7507 40.5661C42.2465 41.1659 40.5437 43.0122 38.7926 43.2036C39.1765 41.5014 38.0484 41.1895 38.0484 41.1895C38.0484 41.1895 38.9357 39.3425 36.2736 39.4148C35.3855 39.4391 33.5385 40.0382 32.2912 41.4771C31.9313 41.5254 31.3316 41.6931 30.6356 42.2447C29.3883 43.2283 27.445 44.6432 26.3895 45.1704C26.3895 45.1704 27.6368 43.4919 27.6368 41.9814C27.6368 40.4946 26.8214 40.4463 25.5977 40.4463C24.5661 40.4463 22.791 41.6459 21.0875 43.42C21.1834 43.0126 21.6632 40.4942 20.3676 40.5665C19.6237 40.6148 19.2881 41.2622 19.1442 42.005C18.4247 42.1009 16.1698 42.4847 12.8829 44.0434C11.7555 43.2039 9.71632 42.9164 7.34118 42.7003C3.71872 42.3401 2.20733 42.1724 2.20733 40.9256C2.20733 39.6791 5.66198 37.0409 9.38033 35.8903C13.6025 34.5712 15.7615 34.8108 17.6089 36.4175C18.1366 36.8496 16.6492 37.7366 17.3452 38.0968C18.0647 38.4562 18.9521 38.0968 18.8566 36.6818C18.7607 35.2669 17.9688 33.2285 14.0827 33.2285C10.1722 33.2285 3.98279 35.0025 0.792205 40.3029C0.000368696 41.6212 1.67993 43.3964 4.77425 43.6596C6.83738 43.8517 9.52417 44.2351 10.9157 45.0746C10.8438 45.0981 10.7715 45.1464 10.7235 45.1704C5.39791 48.1924 0 50.5666 0 53.2276C0 54.4749 0.695946 54.8347 2.7351 54.8347C4.77425 54.8347 13.8186 50.6621 13.8186 45.9616C13.8186 45.4583 13.6984 45.0263 13.4586 44.6668C15.354 43.8273 17.2489 43.156 18.9524 42.8681L19.0244 42.7003C18.9764 43.18 18.9764 43.6121 18.9524 43.9228C18.9045 44.331 18.6648 45.458 18.3528 46.7527C16.3136 49.3909 13.8426 52.8682 13.6268 54.7388C13.3631 57.2085 13.7227 58.0001 14.7786 58.0001C15.7383 58.0001 16.7455 57.6646 19.7926 47.7839C20.0083 48.4073 20.656 48.9353 21.6875 48.7911C23.103 48.6234 25.7659 47.8318 28.2369 45.6257C30.2281 43.8517 30.7798 43.3956 31.3076 43.3956C31.2344 43.6623 31.1863 43.9352 31.1638 44.2108C30.8997 47.6641 32.3152 47.9996 33.2988 48.0954C34.2345 48.192 37.2809 47.2567 38.5285 44.043C39.1046 44.1632 40.4722 44.2108 42.2952 42.4367C44.7906 40.0382 44.5261 41.0218 44.1666 41.6209C43.8062 42.2443 41.7671 44.8106 42.4866 46.585C43.1826 48.3598 44.3344 48.6234 46.6372 46.9452C48.9401 45.2659 49.8274 44.4747 49.8274 44.4747C49.8274 44.4747 49.6596 46.9452 52.131 46.9452C53.6424 46.9452 55.3212 45.6261 57.1929 43.7555C59.0399 41.9092 60.2876 40.1344 61.0791 40.1344C61.0791 40.1344 62.2302 42.6048 60.8154 44.1157C59.6396 45.3382 59.2557 45.6747 58.6084 45.3629C57.5286 44.8113 55.9453 45.6265 56.9049 46.3221C57.8882 47.0414 58.5118 47.9284 60.4554 46.5857C62.3991 45.2666 64.7019 43.3245 66.6445 41.5497C68.4199 39.9434 67.0048 39.7757 65.9492 41.0225C65.1578 41.9335 62.7583 43.4922 62.7583 43.4922C62.7583 43.4922 63.4778 40.5665 61.8709 38.624C61.8709 38.624 61.175 36.7541 60.1917 38.7206C60.1917 38.7206 57.1929 42.2454 56.0411 43.3967C53.5458 45.8904 49.4442 46.658 50.9792 43.7562C51.5549 42.6531 53.7862 39.2478 55.2257 36.8739C56.3532 36.6579 57.505 36.4182 58.5118 36.2265C61.7028 35.6031 67.4606 34.8116 68.348 34.8116C69.2354 34.8116 69.0428 34.2825 68.7791 34.0189Z" fill="#333939"/>
<path fill-rule="evenodd" clip-rule="evenodd" d="M11.7792 46.6804C10.9873 49.4144 5.6617 53.2272 3.62255 53.4915C1.58339 53.7551 1.15151 52.6038 3.8147 50.4939C5.32608 49.2706 8.30091 47.2566 11.5634 45.6017C11.8028 45.9136 11.899 46.2726 11.7792 46.6804ZM16.7448 52.0766C15.8571 54.2827 15.1376 55.6976 14.5139 55.5299C13.9142 55.3614 14.7536 52.2919 17.5367 49.6541C17.2726 50.5894 16.9849 51.4528 16.7448 52.0766ZM25.8611 43.2278C25.4052 44.9063 23.5579 46.777 22.5027 46.5126C21.7109 46.2973 20.7036 46.2973 20.1515 46.6328C20.1515 46.6092 20.1515 46.5845 20.1751 46.5609C21.2546 44.9299 21.9746 43.4674 23.3657 42.6999C25.597 41.4527 26.2926 41.5485 25.8611 43.2278ZM35.4812 46.4168C34.2574 46.9447 32.77 47.3761 32.77 46.2251C32.77 45.0737 32.77 43.2274 34.5931 41.9802L34.953 41.3568C34.953 41.3568 36.2007 41.8125 37.0881 41.6204C37.0881 41.6204 37.2559 42.6999 37.6162 43.1312C37.6162 43.1312 36.7288 45.8888 35.4812 46.4168Z" fill="white"/>
</svg>

<svg width="69" height="58" fill="none" xmlns="http://www.w3.org/2000/svg"><path fill-rule="evenodd" clip-rule="evenodd" d="M22.982 13.755c-1.103-.767-1.63-1.03-2.807-1.03-1.007 0-1.919.479-2.59 1.15-.672.672-1.056 1.583-1.056 2.614a3.62 3.62 0 0 0 1.056 2.59c.671.671 1.583 1.175 2.59 1.175H32.65l-9.668-6.499z" fill="#CECECE"/><path fill-rule="evenodd" clip-rule="evenodd" d="M27.205 7.856c-.504-1.247-.792-1.774-1.752-2.422-.84-.576-1.871-.695-2.806-.504-.936.168-1.752.72-2.328 1.559a3.691 3.691 0 0 0-.6 2.758c.192.935.648 1.822 1.512 2.397l10.867 7.41-4.893-11.198z" fill="#4E5353"/><path fill-rule="evenodd" clip-rule="evenodd" d="M33.945 5.098c.216-1.294.264-1.894-.215-2.973C33.322 1.19 32.506.566 31.618.23c-.887-.335-1.87-.311-2.83.12-.936.408-1.608 1.127-1.944 2.014-.335.888-.407 1.919.024 2.854l5.326 12.23 1.751-12.35z" fill="#333939"/><path fill-rule="evenodd" clip-rule="evenodd" d="M45.844 13.755c1.104-.767 1.632-1.03 2.806-1.03 1.033 0 1.92.479 2.591 1.15.672.672 1.056 1.583 1.056 2.614 0 1.007-.36 1.919-1.031 2.59-.696.671-1.584 1.175-2.616 1.175H36.2l9.644-6.499z" fill="#ADACAC"/><path fill-rule="evenodd" clip-rule="evenodd" d="M41.647 7.856c.48-1.247.767-1.774 1.727-2.422.864-.576 1.87-.695 2.806-.504.936.168 1.776.72 2.352 1.559.575.84.768 1.822.575 2.758-.167.935-.647 1.822-1.487 2.397l-10.867 7.41 4.894-11.198z" fill="#8E8F8F"/><path fill-rule="evenodd" clip-rule="evenodd" d="M41.982 2.364C41.647 1.477 40.975.758 40.04.35c-.935-.431-1.92-.455-2.806-.12-.888.336-1.704.96-2.136 1.895-.335.768-.407 1.295-.335 2.014v.048l1.007.024c.576.024.863.168.144.48-.264.192-1.008.312-.84 1.63l1.584 11.127 5.325-12.23c.408-.935.336-1.966 0-2.854z" fill="#4E5353"/><path fill-rule="evenodd" clip-rule="evenodd" d="M42.918 34.475c0 3.789-3.095 4.052-4.246 4.052-.792 0-8.3.096-8.3.096V22.58h7.316c2.303 0 4.078 1.823 4.078 4.029s-1.15 3.525-2.039 3.525c0 0 3.191.527 3.191 4.34z" fill="#000"/><path fill-rule="evenodd" clip-rule="evenodd" d="M34.593 25.506v2.973h2.135c1.512 0 1.584-2.973 0-2.973h-2.135zm0 6.355v3.43h3.046c1.752 0 1.847-3.43 0-3.43h-3.046z" fill="#fff"/><path fill-rule="evenodd" clip-rule="evenodd" d="M16.985 36.753c-1.032-.816-2.255-1.247-4.415-.935v2.805h4.367a.959.959 0 0 1-.408-.576c-.12-.455.144-.863.36-1.175.023-.047.048-.095.096-.12zm-2.903-4.197c1.271 0 2.255.216 2.998.551v-4.34l7.701 9.88.024-.024h4.51v-16.09h-4.534v9.88l-7.7-9.88h-4.51v10.095a16.92 16.92 0 0 1 1.51-.072zm41.599 5.78v-.864h-.025c-.24.384-.503.815-.768 1.247a12.3 12.3 0 0 0 .793-.383zm-4.703.983c.216-.336.456-.696.672-1.055-.864.191-1.391.312-1.631.383-.624.192-1.008-.12-1.128-.24-.288-.287-.36-.695-.216-1.127.168-.48.648-1.031 1.487-1.175a40.2 40.2 0 0 0 3.287-.671c.095-.144.192-.288.288-.456-.48.192-.984.264-1.512.264a4.503 4.503 0 0 1-4.51-4.509c0-2.445 2.015-4.46 4.51-4.46 1.391 0 2.615.624 3.455 1.607v-4.533a8.443 8.443 0 0 0-4.03-1.007c-4.703 0-8.517 3.813-8.517 8.489a8.507 8.507 0 0 0 7.845 8.49z" fill="#000"/><path fill-rule="evenodd" clip-rule="evenodd" d="M68.78 34.019c-.265-.264-.529-.791-2.04-.528-1.271.216-7.869 1.463-10.724 2.062.145-.287.288-.551.36-.743.72-1.583-.336-2.038-1.151-.887-.216.336-.744 1.127-1.368 2.11-1.559.36-2.638.576-3.574.72-1.151.192-1.344 1.51-.456 1.246.432-.119 1.68-.383 3.215-.695-1.367 2.159-2.95 4.677-3.479 5.564-.887 1.51-3.19 3.02-4.438 3.645-1.223.6-1.583.168-.791-1.15.791-1.344 1.511-2.663 2.04-3.382.527-.696 0-.96-.529-.791 0 0 .624-2.207-.72-2.207-1.32 0-1.847.96-2.374 1.583-.505.6-2.207 2.446-3.958 2.638.383-1.703-.745-2.014-.745-2.014s.888-1.847-1.774-1.775c-.889.024-2.736.623-3.983 2.062-.36.048-.96.216-1.655.768-1.248.983-3.191 2.398-4.246 2.925 0 0 1.247-1.678 1.247-3.189 0-1.486-.816-1.535-2.04-1.535-1.03 0-2.806 1.2-4.51 2.974.096-.407.576-2.926-.72-2.854-.743.049-1.079.696-1.223 1.439-.72.096-2.974.48-6.261 2.038-1.127-.84-3.167-1.127-5.542-1.343-3.622-.36-5.134-.528-5.134-1.774 0-1.247 3.455-3.885 7.173-5.036 4.222-1.319 6.381-1.08 8.229.527.528.433-.96 1.32-.264 1.68.72.36 1.607 0 1.512-1.415-.096-1.415-.888-3.454-4.774-3.454-3.91 0-10.1 1.774-13.29 7.075-.793 1.317.887 3.093 3.98 3.357 2.063.192 4.75.575 6.142 1.415-.072.023-.145.071-.193.095C5.398 48.192 0 50.567 0 53.228c0 1.247.696 1.607 2.735 1.607 2.04 0 11.084-4.173 11.084-8.873 0-.504-.12-.936-.36-1.295 1.895-.84 3.79-1.511 5.493-1.799l.072-.168c-.048.48-.048.912-.072 1.223-.048.408-.287 1.535-.6 2.83-2.038 2.638-4.51 6.115-4.725 7.986-.264 2.47.096 3.261 1.152 3.261.96 0 1.966-.335 5.014-10.216.215.623.863 1.151 1.895 1.007 1.415-.168 4.078-.96 6.549-3.165 1.991-1.774 2.543-2.23 3.07-2.23-.073.266-.12.54-.143.815-.264 3.453 1.151 3.789 2.135 3.884.935.097 3.982-.838 5.23-4.052.576.12 1.943.168 3.766-1.606 2.496-2.399 2.231-1.415 1.872-.816-.36.623-2.4 3.19-1.68 4.964.696 1.775 1.847 2.038 4.15.36 2.303-1.68 3.19-2.47 3.19-2.47s-.167 2.47 2.304 2.47c1.511 0 3.19-1.319 5.062-3.19 1.847-1.846 3.095-3.62 3.886-3.62 0 0 1.151 2.47-.264 3.98-1.175 1.223-1.56 1.56-2.207 1.248-1.08-.552-2.663.264-1.703.96.983.718 1.607 1.605 3.55.263 1.944-1.32 4.247-3.261 6.19-5.036 1.775-1.607.36-1.774-.696-.527-.791.91-3.19 2.47-3.19 2.47s.719-2.927-.888-4.869c0 0-.696-1.87-1.68.097 0 0-2.998 3.524-4.15 4.676-2.495 2.493-6.597 3.261-5.062.36.576-1.104 2.807-4.51 4.247-6.883 1.127-.216 2.279-.456 3.286-.648 3.19-.623 8.949-1.414 9.836-1.414.887 0 .695-.53.431-.793z" fill="#333939"/><path fill-rule="evenodd" clip-rule="evenodd" d="M11.78 46.68c-.793 2.734-6.118 6.547-8.157 6.812-2.04.263-2.471-.888.192-2.998 1.511-1.223 4.486-3.237 7.748-4.892.24.312.336.67.216 1.078zm4.965 5.397c-.888 2.206-1.607 3.62-2.231 3.453-.6-.169.24-3.238 3.023-5.876a29.05 29.05 0 0 1-.792 2.423zm9.116-8.85c-.456 1.68-2.303 3.55-3.358 3.286-.792-.216-1.8-.216-2.352.12 0-.024 0-.049.024-.072 1.08-1.631 1.8-3.094 3.19-3.861 2.232-1.247 2.928-1.152 2.496.528zm9.62 3.19c-1.224.528-2.711.96-2.711-.192 0-1.151 0-2.998 1.823-4.245l.36-.623s1.248.456 2.135.263c0 0 .168 1.08.528 1.511 0 0-.887 2.758-2.135 3.286z" fill="#fff"/></svg>
